polaris-icons/icons/new-icons/BillingStatementYenMajor.svg

<svg width="20" height="20" viewBox="0 0 20 20" fill="none" xmlns="http://www.w3.org/2000/svg">
<path fill-rule="evenodd" clip-rule="evenodd" d="M4.9626 17.4004C4.38275 17.1779 4 16.6211 4 16V5C4 3.61929 5.11929 2.5 6.5 2.5H13.5C14.8807 2.5 16 3.61929 16 5V16C16 16.6211 15.6172 17.1779 15.0374 17.4004C14.4576 17.6229 13.8005 17.4651 13.3851 17.0035L12.25 15.7423L11.1149 17.0035C10.8305 17.3195 10.4252 17.5 10 17.5C9.57477 17.5 9.16952 17.3195 8.88506 17.0035L7.74999 15.7423L6.61493 17.0035C6.19945 17.4651 5.54245 17.6229 4.9626 17.4004ZM7.74999 14.9949L7.75085 14.9941ZM12.3515 14H12.1485C11.911 14.024 11.6806 14.1327 11.5067 14.3259L10 16L8.49329 14.3259C8.31939 14.1327 8.08898 14.024 7.85154 14H7.64845C7.41101 14.024 7.18061 14.1327 7.00671 14.3259L5.5 16V5C5.5 4.44772 5.94772 4 6.5 4H13.5C14.0523 4 14.5 4.44772 14.5 5V16L12.9933 14.3259C12.8194 14.1327 12.589 14.024 12.3515 14Z" fill="#4A4A4A"/>
<path d="M8.49389 5.43558C8.18216 5.16282 7.70834 5.1944 7.43558 5.50613C7.16282 5.81786 7.1944 6.29168 7.50613 6.56444L9.25001 8.09034V8.50001H8.00001C7.5858 8.50001 7.25001 8.8358 7.25001 9.25001C7.25001 9.66422 7.5858 10 8.00001 10H9.25001V10.5H8.00001C7.5858 10.5 7.25001 10.8358 7.25001 11.25C7.25001 11.6642 7.5858 12 8.00001 12H9.25001V12.5C9.25001 12.9142 9.5858 13.25 10 13.25C10.4142 13.25 10.75 12.9142 10.75 12.5V12H12C12.4142 12 12.75 11.6642 12.75 11.25C12.75 10.8358 12.4142 10.5 12 10.5H10.75V10H12C12.4142 10 12.75 9.66422 12.75 9.25001C12.75 8.8358 12.4142 8.50001 12 8.50001H10.75V8.09034L12.4939 6.56444C12.8056 6.29168 12.8372 5.81786 12.5644 5.50613C12.2917 5.1944 11.8179 5.16282 11.5061 5.43558L10 6.75343L8.49389 5.43558Z" fill="#4A4A4A"/>
</svg>

<svg viewBox="0 0 20 20" xmlns="http://www.w3.org/2000/svg"><path fill-rule="evenodd" d="M4.963 17.4a1.5 1.5 0 0 1-.963-1.4v-11a2.5 2.5 0 0 1 2.5-2.5h7a2.5 2.5 0 0 1 2.5 2.5v11a1.5 1.5 0 0 1-2.615 1.003l-1.135-1.26-1.135 1.26a1.5 1.5 0 0 1-2.23 0l-1.135-1.26-1.135 1.26a1.5 1.5 0 0 1-1.652.397Zm2.787-2.405Zm4.601-.995h-.203a.995.995 0 0 0-.641.326l-1.507 1.674-1.507-1.674a.995.995 0 0 0-.641-.326h-.204a.995.995 0 0 0-.641.326l-1.507 1.674v-11a1 1 0 0 1 1-1h7a1 1 0 0 1 1 1v11l-1.507-1.674a.995.995 0 0 0-.642-.326Z" fill="#5C5F62"/><path d="M8.494 5.436a.75.75 0 1 0-.988 1.128l1.744 1.526v.41h-1.25a.75.75 0 0 0 0 1.5h1.25v.5h-1.25a.75.75 0 0 0 0 1.5h1.25v.5a.75.75 0 0 0 1.5 0v-.5h1.25a.75.75 0 0 0 0-1.5h-1.25v-.5h1.25a.75.75 0 0 0 0-1.5h-1.25v-.41l1.744-1.526a.75.75 0 0 0-.988-1.128l-1.506 1.317-1.506-1.317Z" fill="#5C5F62"/></svg>
